X:1
T:Vexillum, 11.11.11 D
T:Vexillum, 11.11.11 D
T:Henry Thomas Smart, 1868
T:Public Domain Courtesy of the Cyber Hymnal™
C:Henry Thomas Smart, 1868
Z:Public Domain
Z:Courtesy of the Cyber Hymnal™
%%score ( 1 2 ) ( 3 4 )
L:1/8
Q:1/4=113
M:4/4
K:E
V:1 treble 
V:2 treble 
V:3 bass 
V:4 bass 
V:1
 [EG]2 [DA]2 [EB]2 [DB]2 | e4 B4 | [EG]2 [EA]2 [EB]2 [DF]2 | [EG]8 | E2 [DF]2 [EG]2 [FB]2 | %5
 e4 (d2 B2) | [EG]2 [EG]2 [E^A]2 [Ec]2 | [DB]8 | [DF]2 [DF]2 [^EG]2 [FA]2 | [GB]4 [Gc]4 | %10
 [FA]2 [Fc]2 [GB]2 [^EG]2 | [FA]8 | [CA]2 [EA]2 [FB]2 [EB]2 | [Ec]4 [Ee]4 | %14
 [Ec]2 [^EB]2 [FA]2 [=EG]2 | ([EF]4 [DB]4) | [EB]2 [EB]2 [FB]2 [DB]2 | e4 B4 | %18
 [EG]2 [EA]2 [EB]2 [DF]2 | [EG]8 | [EG]2 [FB]2 [Ee]2 [Ed]2 | [Ec]4 [DB]4 | E2 [FA]2 [EG]2 [DF]2 | %23
 E8 |] %24
V:2
 x8 | (E2 G2) (F2 D2) | x8 | x8 | E2 x6 | (E2 F2) F4 | x8 | x8 | x8 | x8 | x8 | x8 | x8 | x8 | x8 | %15
 x8 | x8 | E2 G2 F2 D2 | x8 | x8 | x8 | x8 | E2 x6 | E8 |] %24
V:3
 [E,B,]2 [F,B,]2 [G,B,]2 [A,B,]2 | B,4 A,4 | [E,B,]2 [C,C]2 [G,,B,]2 [B,,B,]2 | [E,B,]8 | %4
 [G,B,]2 [F,B,]2 [E,B,]2 [D,F,]2 | (G,2 ^A,2) [D,B,]4 | [E,B,]2 [C,C]2 [F,C]2 [F,^A,]2 | [B,,B,]8 | %8
 B,2 [A,B,]2 [G,B,]2 [F,C]2 | [F,=D]4 [^E,G,]4 | [F,C]2 [A,,C]2 [B,,=D]2 [C,C]2 | [F,A,]8 | %12
 [F,A,]2 [C,A,]2 [=D,A,]2 [E,G,]2 | [A,,A,]4 [G,,B,]4 | [A,,A,]2 [C,G,]2 [F,A,]2 [A,,C]2 | %15
 (F,6 A,2) | [E,G,]2 [G,B,]2 [B,D]2 [A,F]2 | B,4 B,4 | [E,B,]2 [C,C]2 [G,,B,]2 [B,,B,]2 | [E,B,]8 | %20
 [E,B,]2 [D,F,]2 (G,A,) [G,,B,]2 | [A,,A,]4 [B,,F,]4 | [C,E,]2 [A,,C]2 [B,,B,]2 [B,,A,]2 | %23
 [E,G,]8 |] %24
V:4
 x8 | (G,2 E,2) (D,2 B,,2) | x8 | x8 | x8 | C,4 x4 | x8 | x8 | B,2 x6 | x8 | x8 | x8 | x8 | x8 | %14
 x8 | B,,8 | x8 | G,2 E,2 D,2 B,,2 | x8 | x8 | x4 C,2 x2 | x8 | x8 | x8 |] %24

